X:1
T: Davie Taylor
C:
R:Strathspey
Q: 128
K:G
M:4/4
L:1/16
|:D2|G2FE D2EF G4 D3C|B,D3 G3B AA,3 A,3F|G2FE D2EF G2g2 e2c2|Bd3 c3A BG3 G2D2|
G2FE D2EF G4 D3C|B,D3 G3B AA,3 A,3F|G2FE D2EF G2g2 e2c2|Bd3 c3A BG3 G2c2|
Bcd2 G3g e3g c3g|^cde2 A3a fd3 d3=c|Bcd2 G3g e3g c3e|d3g A3d B3F G3c|
Bcd2 g3f e3g c3e|^cde2 Aa3 fd3 d3f|((3g2f2e2) ((3d2e2f2) ((3g2d2c2) ((3B2A2G2) |((3F2E2D2) ((3C2B,2A,2) B,G,3 G,2:|
